!! Stephen C. Foster, "Maggie by my Side"
!! from 'Stephen Foster Song Book' Dover Publications (New York) pp. 60-62
!! NOTE:  Leading and trailing bars of rest have been omitted.
**kern
*M4/4
*MM76
*G:
8b
=1
4b
8d
8e
8.g
16a
8b
8dd
=2
8a
8b
8.a
16g
4a
8r
8a
=3
4b
8d
8e
8.g
16a
8b
8dd
=4
8.dd
16cc
8f#
8f#
4.g
8r
=5
4dd
8.dd
16ee
4dd
4b
=6
8.ee
16dd
8b
8g
4a
8r
{16b
16cc}
=7
4dd
8dd
8ee
4dd
4b
=8
8g
8a
8.g
16e
4g
8r
8a
=9
4b
4d
8g
8a
4g
=10
8a
8b
8.a
16g
4.a
8r
=11
8b
8b
8.cc
16cc
4dd;
4ee;
=12
8ee
8dd
8.f#S;
16f#
2g
=13
1r
=14
1r
=15
1r
=16
2r
4.r
8b
=17
4b
8d
8e
8.g
16a
8b
8dd
=18
8.a
16b
8a
8g
4a
8r
8a
=19
4b
8d
8e
8.g
16a
8b
8dd
=20
8dd
8cc
8.f#
16f#
4.g
8r
=21
4dd
8.dd
16ee
4dd
4b
=22
8.ee
16dd
8b
8g
4a
8r
{16b
16cc}
=23
4dd
8.dd
16ee
4dd
4b
=24
8g
8a
8.g
16e
4g
8r
8a
=25
4b
4d
8g
8a
4g
=26
8a
8b
8.a
16g
4.a
8r
=27
8b
8b
8.cc
16cc
4dd;
4ee;
=28
8ee
8dd
8f#S;
16f#
2g
==
*-
